X:1
T:Title
%%score [ 1 2 3 4 ]
L:1/8
M:3/4
K:Bb
V:1 treble nm="Sopran / Alt" snm="S"
V:2 treble nm="Sopran / Alt" snm="A"
V:3 treble-8 nm="Tenor / Baß" snm="T"
V:4 bass nm="Tenor / Baß" snm="B"
V:1
"^Z narodzenia Pana" B>A B2 g2 | f4 e2 | d>d c2 c2 |"^Polish Carol  (Trad. - XIX C.)" B4 z2 | %4
w: Z~na- ro- dze- nia|~Pa- na~|dzień~ dziś~ we- so-|ły,~|
 B>A B2 g2 | f4 e2 | d>d c2 c2 | B4 z2 | f>d f2 f2 | f>e e2 d2 | f>d f2 f2 | f>e e2 d2 | %12
w: Wy- śpie- wu- ją~|chwa- łę~|Bo- gu ~ży- wio-|ły!~|Ra- dość ~lu- dzi|~wszę- dy ~pły- nie,|A- nioł~ bu- dzi~|przy ~do- li- nie~|
 B>A B2 g2 | f4 e2 | d>d c2 c2 | B4 z2 |] %16
w: Pa- ste- rzy, ~co|~pa- śli~|pod ~bo- rem~ wo-|ły!~|
V:2
 F->F F2 c2 | c2 B2 c2 | B->B A2 BA | F4 z2 | F->F F2 c2 | (c2 B2) c2 | B->B A2 BA | F4 z2 | %8
 F->F B2 B2 | B->B B2 B2 | B->B B2 B2 | B->B B2 A2 | G->G G2 B2 | (B2 =BA) G2 | B>c B2 A2 | %15
 F4 z2 |] %16
V:3
 d->d d2 e2 | (e2 d2) f2 | f->f f2 gf | d4 z2 | d>d d2 e2 | (fe d2) f2 | f->f f2 gf | d4 z2 | %8
w: Z~na- ro- dze- nia|~Pa- * na~|dzień~ dziś~ we- so- *|ły,~|Wy- śpie- wu- ją~|chwa- * * łę~|Bo- gu ~ży- wio- *|ły!~|
 d>d d2 dc | B->B e2 f2 | B->B d2 dc | B->B Bc d2 | d>d d2 de | (f2 g2) g2 | f->f g2 fe | d4 z2 |] %16
w: Ra- dość ~lu- dzi *|wszę- dy ~pły- nie,|A- nioł~ bu- dzi~ *|przy ~do- li- * nie~|Pa- ste- rzy, ~co *|~pa- * śli~|pod ~bo- rem~ wo- *|ły!~|
V:4
 B,,->B,, B,,2 C,B,, | A,,2 B,,2 A,,2 | B,,->B,, F,2 E,F, | B,,4 z2 | B,,->B,, B,,2 C,B,, | %5
 (A,,2 B,,2) A,,2 | B,,->B,, F,2 E,F, | B,,4 z2 | B,,->B,, B,,2 B,,C, | D,->D, G,,2 B,,2 | %10
 B,,->B,, B,,2 B,,C, | B,,->B,, G,,2 ^F,,2 | %12
"^Z narodzenia Pana\n\nZ narodzenia Pana dzień dziś wesoły, \nWyśpiewują chwałę Bogu żywioły! \nRadość ludzi wszędy płynie, \nPasterzy, co paśli pod borem woły! \n\nWypada wśród nocy ogień z obłoku! \nDumają pasterze przy tym widoku. \nKażdy pyta, co się dzieje, \nCzy nie świta, czy nie dnieje, \nSkąd ta łuna bije, tak miła oku? \n\nAle gdy anielskie głosy słyszeli, \nZaraz do Betlejem prosto bieżeli. \nTam witali w żłobie Pana, \nPoklękali na kolana \nI oddali dary, co z sobą wzięli. \n\nI my z pastuszkami dziś się radujmy, \nChwałę z aniołami wraz wyśpiewujmy! \nBo ten Jezus, z nieba dany, \nWeźmie nas między niebiany, \nTylko Go z całego serca miłujmy!\n" G,,A,, B,,C, D,2 | %13
 (D,2 =B,,2) C,2 | D,2 =E,2 F,2 | B,,4 z2 |] %16

